assets/svg/shears.svg

<svg width="50" height="50" viewBox="0 0 50 50" fill="none" xmlns="http://www.w3.org/2000/svg">
<path d="M23.3944 21.2747C21.7576 21.5329 14.7681 23.7763 12.2152 24.7433C10.7495 25.289 11.66 23.5539 11.66 22.0254C11.66 19.0249 9.17265 16.5897 6.10789 16.5897C3.04312 16.5897 0.555771 19.0249 0.555771 22.0254C0.555771 25.0259 3.04312 27.4612 6.10789 27.4612C6.48598 27.4612 6.85576 27.4231 7.21276 27.3525C9.59017 27.1589 12.1453 26.573 14.4266 25.9816C16.4559 25.5304 18.2232 25.0787 19.4013 25.0787C19.7938 25.0787 20.8415 25.0787 21.1686 25.9169C21.7576 27.2709 22.6088 27.5286 23.2634 27.5286C23.6559 27.5286 23.918 27.3997 23.9835 27.3997C30.5289 25.5945 47.3512 20.3072 49.446 16.5032L23.3944 21.2747ZM3.33183 22.0254C3.33183 20.5251 4.5755 19.3075 6.10789 19.3075C7.64027 19.3075 8.88394 20.5251 8.88394 22.0254C8.88394 23.5257 7.64027 24.7433 6.10789 24.7433C4.5755 24.7433 3.33183 23.5257 3.33183 22.0254Z" fill="#6794C2"/>
<path d="M23.2634 28.0727C22.4605 28.0727 21.3562 27.7357 20.6578 26.13C20.4812 25.6782 19.8938 25.6223 19.4013 25.6223C18.4708 25.6223 17.0866 25.9364 15.4837 26.3006L14.5493 26.5121C11.4934 27.3035 8.9167 27.746 6.69141 27.8585C6.68142 27.8591 6.67253 27.8591 6.66254 27.8591H6.10733C2.73997 27.8591 0 25.1618 0 21.846C0 18.5308 2.73997 15.8335 6.10733 15.8335C9.47468 15.8335 12.2147 18.5308 12.2147 21.846C12.2147 22.5369 12.0947 23.2169 11.8632 23.8594C14.762 23.0191 21.9625 20.9497 23.305 20.7382L49.3428 15.9694C49.5543 15.933 49.7669 16.0146 49.893 16.1836C50.0196 16.3532 50.0351 16.5782 49.9329 16.762C47.3362 21.478 25.0783 27.6628 24.1323 27.9238C24.1123 27.9292 24.0923 27.9335 24.0723 27.9363C23.8858 27.9933 23.6181 28.0727 23.2634 28.0727ZM19.4013 24.5351C19.8521 24.5351 21.2235 24.5351 21.6871 25.7234C22.179 26.8529 22.8225 26.9855 23.2634 26.9855C23.4577 26.9855 23.6048 26.9404 23.7131 26.9073C23.7653 26.8915 23.8158 26.8757 23.8702 26.8665C32.029 24.6134 44.2231 20.4632 47.9886 17.3229L23.496 21.8091C21.9003 22.0607 11.0953 25.2167 10.9865 25.2483C10.7667 25.3124 10.5274 25.2374 10.3869 25.058C10.247 24.8792 10.2342 24.634 10.3552 24.4416C10.8455 23.6648 11.1048 22.7668 11.1048 21.846C11.1048 19.1303 8.8634 16.9207 6.10788 16.9207C3.35237 16.9207 1.11098 19.1298 1.11098 21.846C1.11098 24.5623 3.35237 26.7719 6.10788 26.7719H6.64866C8.79399 26.6621 11.2919 26.2321 14.285 25.4565L15.2333 25.2418C16.9023 24.8629 18.3442 24.5351 19.4013 24.5351Z" fill="#1F212B"/>
<path d="M22.2818 30.7525C23.918 29.205 25.3582 27.9156 26.0128 27.0127L40.0857 3.54384C34.522 4.89789 20.9071 22.6288 20.7105 22.8864C20.645 22.9511 19.2703 24.2405 20.9071 25.9816C21.8237 26.9486 20.3835 28.8832 18.4197 31.5907C16.3904 34.3635 13.9031 37.7804 13.6416 40.682C13.6416 40.682 13.8814 40.8402 13.8814 41.0506C13.8814 44.0511 16.3688 46.4863 19.4335 46.4863C22.4983 46.4863 24.9856 44.0511 24.9856 41.0506C24.9856 38.05 22.4983 35.6148 19.4335 35.6148C18.3131 35.6148 20.2708 32.6143 22.2818 30.7525ZM19.433 38.3327C20.9654 38.3327 22.209 39.5503 22.209 41.0506C22.209 42.5508 20.9654 43.7684 19.433 43.7684C17.9006 43.7684 16.6569 42.5508 16.6569 41.0506C16.6569 39.5503 17.9006 38.3327 19.433 38.3327Z" fill="#C6E0F2"/>
<path d="M24.7075 21.7536C24.094 21.7536 23.597 22.2401 23.597 22.8408C23.597 23.4414 24.094 23.9279 24.7075 23.9279C25.321 23.9279 25.8179 23.4414 25.8179 22.8408C25.8179 22.2401 25.321 21.7536 24.7075 21.7536Z" fill="#FEFDF0"/>
<path d="M24.7075 24.1997C23.9418 24.1997 23.3194 23.5904 23.3194 22.8408C23.3194 22.0912 23.9418 21.4818 24.7075 21.4818C25.4731 21.4818 26.0955 22.0912 26.0955 22.8408C26.0955 23.5904 25.4731 24.1997 24.7075 24.1997ZM24.7075 22.0254C24.2483 22.0254 23.8747 22.3912 23.8747 22.8408C23.8747 23.2903 24.2483 23.6561 24.7075 23.6561C25.1666 23.6561 25.5403 23.2903 25.5403 22.8408C25.5403 22.3912 25.1666 22.0254 24.7075 22.0254Z" fill="#1F212B"/>
<path d="M19.433 47C16.0656 47 13.3256 44.3028 13.3256 40.987V40.4401C13.5916 37.4651 15.6736 34.4086 17.9683 31.2744L18.0982 31.0944C19.6362 28.975 21.0886 26.9725 20.499 26.3512C19.0565 24.8161 19.4796 23.3414 20.2885 22.5309C20.9398 21.6802 34.2238 4.40976 39.9514 3.01603C40.1679 2.9633 40.3961 3.04321 40.5299 3.21824C40.6637 3.39327 40.6776 3.63027 40.5643 3.81835L26.4914 27.2883C25.8945 28.1156 24.7852 29.1566 23.4999 30.3606L22.6671 31.1439C22.666 31.145 22.6643 31.1466 22.6632 31.1477C21.6077 32.1251 20.1831 33.8645 19.3047 34.9761C19.3475 34.9756 19.3897 34.975 19.4324 34.975C22.7998 34.975 25.5397 37.6722 25.5397 40.9875C25.5403 44.3028 22.8003 47 19.433 47ZM38.7382 4.71796C33.6414 7.68752 24.3283 19.0423 21.1558 23.2115C21.1402 23.2316 21.123 23.2512 21.1047 23.2691C20.856 23.5116 20.1553 24.3786 21.3157 25.613C22.5172 26.8806 21.1191 28.8071 19.0043 31.7233L18.8728 31.9049C16.6697 34.9141 14.6742 37.8337 14.4344 40.4874L14.4361 40.9875C14.4361 43.7032 16.6774 45.9134 19.433 45.9134C22.1885 45.9134 24.4299 43.7038 24.4299 40.9875C24.4299 38.2713 22.1885 36.0622 19.433 36.0622C19.0127 36.0622 18.5963 36.1133 18.1948 36.2138C17.9672 36.2709 17.7274 36.1812 17.5969 35.991C17.4659 35.8002 17.4708 35.5496 17.6102 35.3653C17.7146 35.2256 20.1986 31.9343 21.8992 30.359L22.7326 29.5757C23.9763 28.4092 25.0506 27.4019 25.5603 26.6985L38.7382 4.71796Z" fill="#1F212B"/>
<path d="M19.433 44.2653C17.5958 44.2653 16.1017 42.7949 16.1017 40.9875C16.1017 39.1801 17.5958 37.7097 19.433 37.7097C21.2701 37.7097 22.7642 39.1801 22.7642 40.9875C22.7642 42.7949 21.2701 44.2653 19.433 44.2653ZM19.433 38.7969C18.2082 38.7969 17.2121 39.7797 17.2121 40.9875C17.2121 42.1953 18.2082 43.1781 19.433 43.1781C20.6578 43.1781 21.6538 42.1953 21.6538 40.9875C21.6538 39.7797 20.6578 38.7969 19.433 38.7969Z" fill="#1F212B"/>
<path d="M6.10788 25.2401C4.27069 25.2401 2.77661 23.7697 2.77661 21.9624C2.77661 20.155 4.27069 18.6846 6.10788 18.6846C7.94508 18.6846 9.43915 20.155 9.43915 21.9624C9.43915 23.7697 7.94508 25.2401 6.10788 25.2401ZM6.10788 19.7717C4.88308 19.7717 3.88703 20.7545 3.88703 21.9624C3.88703 23.1702 4.88308 24.153 6.10788 24.153C7.33268 24.153 8.32873 23.1702 8.32873 21.9624C8.32873 20.7545 7.33268 19.7717 6.10788 19.7717Z" fill="#1F212B"/>
</svg>

<svg xmlns="http://www.w3.org/2000/svg" width="50" height="50" fill="none" viewBox="0 0 50 50"><path fill="#6794c2" d="M23.394 21.275c-1.636.258-8.626 2.501-11.179 3.468-1.466.546-.555-1.19-.555-2.718 0-3-2.487-5.435-5.552-5.435S.556 19.025.556 22.025s2.487 5.436 5.552 5.436q.568-.002 1.105-.108c2.377-.194 4.932-.78 7.214-1.371 2.029-.452 3.796-.903 4.974-.903.393 0 1.44 0 1.768.838.589 1.354 1.44 1.612 2.094 1.612.393 0 .655-.13.72-.13 6.546-1.805 23.368-7.092 25.463-10.896zm-20.062.75c0-1.5 1.244-2.717 2.776-2.717s2.776 1.217 2.776 2.717-1.244 2.718-2.776 2.718-2.776-1.217-2.776-2.718"/><path fill="#1f212b" d="M23.263 28.073c-.803 0-1.907-.337-2.605-1.943-.177-.452-.764-.508-1.257-.508-.93 0-2.314.314-3.917.679l-.935.211c-3.056.791-5.632 1.234-7.858 1.346l-.028.001h-.556C2.74 27.86 0 25.162 0 21.846s2.74-6.012 6.107-6.012 6.108 2.697 6.108 6.012c0 .69-.12 1.37-.352 2.013 2.899-.84 10.1-2.91 11.442-3.12l26.038-4.77a.56.56 0 0 1 .55.215c.127.17.142.394.04.578-2.597 4.716-24.855 10.9-25.8 11.162l-.06.012a2.6 2.6 0 0 1-.81.137m-3.862-3.538c.451 0 1.823 0 2.286 1.188.492 1.13 1.136 1.262 1.576 1.262.195 0 .342-.045.45-.078q.077-.025.157-.04c8.159-2.254 20.353-6.404 24.119-9.544l-24.493 4.486c-1.596.252-12.4 3.408-12.51 3.44a.56.56 0 0 1-.6-.191.535.535 0 0 1-.03-.616c.49-.777.749-1.675.749-2.596 0-2.716-2.242-4.925-4.997-4.925S1.11 19.13 1.11 21.846s2.241 4.926 4.997 4.926h.54c2.146-.11 4.644-.54 7.637-1.315l.948-.215c1.67-.38 3.111-.707 4.168-.707"/><path fill="#c6e0f2" d="M22.282 30.753c1.636-1.548 3.076-2.837 3.73-3.74l14.074-23.47C34.522 4.899 20.907 22.63 20.71 22.887c-.066.065-1.44 1.355.196 3.096.917.967-.523 2.901-2.487 5.609-2.03 2.773-4.517 6.19-4.778 9.091 0 0 .24.158.24.369 0 3 2.487 5.435 5.551 5.435s5.553-2.435 5.553-5.435c0-3.001-2.488-5.436-5.553-5.436-1.12 0 .838-3 2.849-4.863m-2.849 7.58c1.532 0 2.776 1.217 2.776 2.718s-1.244 2.717-2.776 2.717-2.776-1.217-2.776-2.717 1.244-2.718 2.776-2.718"/><path fill="#fefdf0" d="M24.708 21.754c-.614 0-1.111.486-1.111 1.087 0 .6.497 1.087 1.11 1.087s1.11-.487 1.11-1.087-.496-1.087-1.11-1.087"/><path fill="#1f212b" d="M24.708 24.2c-.766 0-1.389-.61-1.389-1.36 0-.749.623-1.358 1.389-1.358.765 0 1.388.61 1.388 1.359 0 .75-.623 1.359-1.389 1.359m0-2.175a.825.825 0 0 0-.833.816c0 .45.373.815.832.815.46 0 .833-.366.833-.815a.825.825 0 0 0-.832-.816"/><path fill="#1f212b" d="M19.433 47c-3.367 0-6.107-2.697-6.107-6.013v-.547c.266-2.975 2.348-6.031 4.642-9.166l.13-.18c1.538-2.119 2.99-4.122 2.401-4.743-1.442-1.535-1.02-3.01-.21-3.82.65-.85 13.935-18.121 19.662-19.515a.56.56 0 0 1 .579.202.53.53 0 0 1 .034.6l-14.073 23.47c-.596.828-1.706 1.869-2.991 3.073l-.833.783-.004.004c-1.055.977-2.48 2.717-3.358 3.828l.127-.001c3.368 0 6.108 2.697 6.108 6.012 0 3.316-2.74 6.013-6.107 6.013M38.738 4.718c-5.097 2.97-14.41 14.324-17.582 18.494a1 1 0 0 1-.051.057c-.249.243-.95 1.11.21 2.344 1.202 1.268-.196 3.194-2.31 6.11l-.132.182c-2.203 3.01-4.199 5.929-4.439 8.582l.002.5c0 2.716 2.241 4.926 4.997 4.926s4.997-2.21 4.997-4.925c0-2.717-2.241-4.926-4.997-4.926-.42 0-.837.051-1.238.152a.56.56 0 0 1-.598-.223.53.53 0 0 1 .013-.626c.105-.14 2.589-3.43 4.29-5.006l.833-.783c1.243-1.167 2.318-2.174 2.827-2.878z"/><path fill="#1f212b" d="M19.433 44.265c-1.837 0-3.331-1.47-3.331-3.278 0-1.807 1.494-3.277 3.331-3.277s3.331 1.47 3.331 3.277-1.494 3.278-3.331 3.278m0-5.468c-1.225 0-2.22.983-2.22 2.19 0 1.208.995 2.191 2.22 2.191s2.22-.983 2.22-2.19c0-1.208-.995-2.191-2.22-2.191M6.108 25.24c-1.837 0-3.331-1.47-3.331-3.278 0-1.807 1.494-3.277 3.33-3.277 1.838 0 3.332 1.47 3.332 3.277S7.945 25.24 6.108 25.24m0-5.468c-1.225 0-2.221.983-2.221 2.19 0 1.208.996 2.191 2.22 2.191 1.226 0 2.222-.983 2.222-2.19 0-1.209-.996-2.191-2.221-2.191"/></svg>
